!!!COM: Palestrina, Giovanni Perluigi da
!!!OPR: Missa Spem In Alium
!!!OMD: Sanctus
!!!OTL: Pleni
**kern	**kern	**kern
*Itenor	*Icalto	*Icant
!Tenor	!Altus	!Cantus
*clefGv2	*clefG2	*clefG2
*k[]	*k[]	*k[]
*A:aeo	*A:aeo	*A:aeo
*M4/2	*M4/2	*M4/2
=38	=38	=38
0r	0d	0r
=39	=39	=39
0r	1d	0a
.	2.f	.
.	4e	.
=40	=40	=40
0r	4f	1a
.	4g	.
.	2.a	.
.	.	1cc
.	4g	.
.	2e	.
=41	=41	=41
1r	1f	1dd
[1A	2e	1ee
.	4c	.
.	4d	.
=42	=42	=42
1A]	4e	2.cc
.	4c	.
.	2f	.
.	.	4dd
1A	2e	4ee
.	.	4cc
.	2a	[2ff
=43	=43	=43
1c	2g	4ff]
.	.	4ee
.	2cc	2ee
1d	2b	2dd
.	[2a	2cc
=44	=44	=44
1e	2a]	1b
.	2g	.
2.A	2f	[1a
.	4e	.
4B	4d	.
=45	=45	=45
4c	2e	1a]
4A	.	.
1d	2f	.
.	1e	1r
2c	.	.
=46	=46	=46
1.f	1d	2.a
.	.	4b
.	1r	4cc
.	.	4a
4e	.	[2dd
4d	.	.
=47	=47	=47
1e	2.A	4dd]
.	.	8cc
.	.	8b
.	.	4cc
.	4B	4dd
1r	4c	2ee
.	4A	.
.	2d	2ff
=48	=48	=48
2.A	2.c	1ee
4B	4d	.
4c	4e	2r
4A	4c	.
2d	2f	[2a
=49	=49	=49
2c	2e	2a]
1f	1a	2a
.	.	1cc
2e	2g	.
=50	=50	=50
1d	1f	1dd
1c	2g	1ee
.	4c	.
.	4d	.
=51	=51	=51
0r	4e	2.cc
.	4c	.
.	2f	.
.	.	4dd
.	2e	4ee
.	.	4cc
.	[2a	[2ff
=52	=52	=52
2.c	2a]	2ff]
.	4g	2ee
4d	4f	.
4e	2g	2r
4c	.	.
[2f	[2a	[2cc
=53	=53	=53
2f]	2a]	4cc]
.	.	4dd
2e	2g	4ee
.	.	4cc
2d	2f	2ff
2c	[2g	[2ee
=54	=54	=54
1B-	4g]	4ee]
.	4f	4dd
.	2d	1dd
1A	1e	.
.	.	2cc#
=55	=55	=55
2r	1d	2.dd
1f	.	.
.	.	8cc
.	.	8b-
.	2r	[1a
2d	[2f	.
=56	=56	=56
2.f	2f]	1a]
.	2d	.
4e	.	.
2d	2f	2r
2c	2g	[2cc
=57	=57	=57
0f	2a	2cc]
.	1cc	2a
.	.	2cc
.	4b	2dd
.	4a	.
=58	=58	=58
1e	2.g	2ee
.	.	1gg
.	4f	.
1r	2e	.
.	2d	4ff
.	.	4ee
=59	=59	=59
2r	2f	2dd
1c	2g	2ee
.	4a	2cc
.	4g	.
2A	[2cc	[2ee
=60	=60	=60
2c	4cc]	2ee]
.	4b	.
2d	1a	4dd
.	.	4cc
1e	.	1b
.	2g#	.
=61	=61	=61
2f	1a	[0a
2d	.	.
2.f	2r	.
.	[2f	.
4e	.	.
=62	=62	=62
2.d	2f]	1a]
.	2d	.
4c	.	.
1B-	2f	1r
.	2g	.
=63	=63	=63
0A	1a	2r
.	.	1cc
.	2.cc	.
.	.	2a
.	4b	.
=64	=64	=64
0r	2a	2cc
.	4g	2dd
.	4f	.
.	2g	1ee
.	2a	.
=65	=65	=65
1r	4d	1.ff
.	4e	.
.	4f	.
.	4g	.
2r	4a	.
.	4b	.
[2c	2cc	4ee
.	.	4dd
=66	=66	=66
2c]	2g	1ee
2A	1cc	.
2c	.	1a
2d	4b	.
.	4a	.
=67	=67	=67
2e	2g	1cc
2.f	2.a	.
.	.	2dd
4e	4g	.
2c	2e	[2ee
=68	=68	=68
2d	2f	4ee]
.	.	4dd
2G	2g	1dd
1A	1e	.
.	.	2cc#
=69	=69	=69
2r	0d	1dd
1f	.	.
.	.	2r
2d	.	[2ff
=70	=70	=70
2.f	2r	2ff]
.	1f	2dd
4e	.	.
4d	.	2.ff
4c	.	.
[2B-	2d	.
.	.	4ee
=71	=71	=71
4B-]	2f	2.dd
4A	.	.
1G	1g	.
.	.	4cc
.	.	2b-
2F#	2a	2a
=72	=72	=72
0G	2.b-	2.g
.	4a	4a
.	1g	1b-
=73	=73	=73
0d	0f#	0a
*-	*-	*-
!!!CDT: 1525/^1526/-1594/2/2
!!!OCY: Italia
!!!AGN: Mass (Parody)
!!!AST: renaissance, vocal
!!!ASW: Motet 1539 (Jacquet)
!!!PWK: Masses, Book 3
!!!RNB: Cadence finals: D
!!!YOR: Le Opere Complete, v. 6, p. 1
!!!YOO: Rome, Italy: Fratelli Scalera
!!!END: 1992//
!!!EED: John Miller
!!!YEC: Copyright 2000, John Miller
!!!YEN: United States of America
!!!YEM: Rights to all derivative electronic formats reserved.
!!!YEM: Refer to licensing agreement for further details.
!!!YEM: This file must be accompanied by the licensing agreement.
!!!YEM: A copy of the licensing agreement may be found at http://www.music-cog.ohio-state.edu/HumdrumDatabases/Palestrina/license.txt
!!!EMD: converted to Humdrum by Bret Aarden
